icons/Media/video-fill.svg

<svg viewBox="0 0 24 24" xmlns="http://www.w3.org/2000/svg"><path d="M3 3.9934C3 3.44476 3.44495 3 3.9934 3H20.0066C20.5552 3 21 3.44495 21 3.9934V20.0066C21 20.5552 20.5551 21 20.0066 21H3.9934C3.44476 21 3 20.5551 3 20.0066V3.9934ZM10.6219 8.41459C10.5562 8.37078 10.479 8.34741 10.4 8.34741C10.1791 8.34741 10 8.52649 10 8.74741V15.2526C10 15.3316 10.0234 15.4088 10.0672 15.4745C10.1897 15.6583 10.4381 15.708 10.6219 15.5854L15.5008 12.3328C15.5447 12.3035 15.5824 12.2658 15.6117 12.2219C15.7343 12.0381 15.6846 11.7897 15.5008 11.6672L10.6219 8.41459Z"/></svg>

<svg xmlns="http://www.w3.org/2000/svg" viewBox="0 0 24 24">
    <g>
        <path fill="none" d="M0 0h24v24H0z"/>
        <path d="M3 3.993C3 3.445 3.445 3 3.993 3h16.014c.548 0 .993.445.993.993v16.014a.994.994 0 0 1-.993.993H3.993A.994.994 0 0 1 3 20.007V3.993zm7.622 4.422a.4.4 0 0 0-.622.332v6.506a.4.4 0 0 0 .622.332l4.879-3.252a.4.4 0 0 0 0-.666l-4.88-3.252z"/>
    </g>
</svg>
